src/assets/icons/bell.svg

<svg width="24" height="24" viewBox="0 0 24 24" fill="none" xmlns="http://www.w3.org/2000/svg">
<circle cx="12" cy="12" r="10" fill="#379AFF"/>
<path fill-rule="evenodd" clip-rule="evenodd" d="M17.3473 14.4306C17.3473 14.7223 17.1528 14.9167 16.8612 14.9167H7.13894C6.84728 14.9167 6.65283 14.7223 6.65283 14.4306C6.65283 14.1389 6.84728 13.9445 7.13894 13.9445C7.67367 13.9445 8.11117 13.507 8.11117 12.9723V10.5417C8.11117 8.40283 9.86117 6.65283 12.0001 6.65283C14.1389 6.65283 15.8889 8.40283 15.8889 10.5417V12.9723C15.8889 13.507 16.3264 13.9445 16.8612 13.9445C17.1528 13.9445 17.3473 14.1389 17.3473 14.4306ZM13.2639 16.6181C12.9723 17.1042 12.4862 17.3473 12.0001 17.3473C11.757 17.3473 11.5139 17.2987 11.2709 17.1528C11.0278 17.007 10.882 16.8612 10.7362 16.6181C10.5903 16.3751 10.6876 16.0834 10.9306 15.9376C11.1737 15.7917 11.4653 15.8889 11.6112 16.132C11.6259 16.1467 11.6406 16.1659 11.6567 16.1868L11.6567 16.1868C11.6937 16.235 11.7378 16.2926 11.8056 16.3264C12.0487 16.4723 12.3403 16.3751 12.4862 16.132C12.632 15.8889 12.9237 15.8403 13.1667 15.9376C13.4098 16.0348 13.4098 16.3751 13.2639 16.6181ZM14.9167 12.9723C14.9167 13.3126 15.0139 13.6528 15.1598 13.9445H8.84033C8.98617 13.6528 9.08339 13.3126 9.08339 12.9723V10.5417C9.08339 8.93755 10.3959 7.62505 12.0001 7.62505C13.6042 7.62505 14.9167 8.93755 14.9167 10.5417V12.9723Z" fill="white"/>
</svg>

<svg xmlns="http://www.w3.org/2000/svg" width="24" height="24" fill="none" viewBox="0 0 24 24">
  <circle cx="12" cy="12" r="10" fill="#379AFF"/>
  <path fill="#fff" fill-rule="evenodd" d="M17.347 14.43c0 .292-.194.487-.486.487H7.14c-.292 0-.486-.195-.486-.486 0-.292.194-.486.486-.486a.975.975 0 0 0 .972-.973v-2.43a3.9 3.9 0 0 1 3.89-3.89 3.9 3.9 0 0 1 3.888 3.89v2.43c0 .535.437.973.972.973.292 0 .486.194.486.486Zm-4.083 2.188c-.292.486-.778.73-1.264.73-.243 0-.486-.05-.73-.195a1.411 1.411 0 0 1-.534-.535c-.146-.243-.048-.535.195-.68.243-.146.534-.05.68.194.015.015.03.034.046.055.037.048.08.106.149.14.243.145.534.048.68-.195.146-.243.438-.292.68-.194.244.097.244.437.098.68Zm1.653-3.646c0 .34.097.68.243.973H8.84c.146-.292.243-.632.243-.973v-2.43A2.925 2.925 0 0 1 12 7.625a2.925 2.925 0 0 1 2.917 2.917v2.43Z" clip-rule="evenodd"/>
</svg>
